X:1
T:Title
%%score { ( 1 4 ) | ( 2 3 ) }
L:1/8
M:6/8
K:Ab
V:1 treble nm="Grand Piano"
V:4 treble 
V:2 bass 
V:3 bass 
V:1
 z3 z2[Q:1/4=100] [A,CE] | .[A,CE]2 [CG] [CA]2 [Ec] | [Ec]2 [=D_c] [E=c]2 [CE] | %3
 EF[CG] [CA]2 [CF] | [DG]3- [DG]2 E | GA[C_G=A] [D=GB]2 [Ac] | [Bd]2 [=Ac] [Bd]2 E | EFG B2 _c | %8
 [Ec]3- [Ec]2 [CE] | EF[CG] [CA]2 [Ec] | [Ec]2 [=D_c] [E=c]2 [CA] | [Ac]2 [GB] A2 G | F3- F2 F | %13
 [=DB]2 [D=A] [DB]2 [A,DF] | [C=DA]2 [CDA] [B,DG]2 [A,DF] | E2 E F2 F |[M:5/8] G-G- G3 |[M:1/8] E | %18
[M:3/4] c-[Fc-] [Gc] c2- [Gc] | c6 | c3 c3 | [Gd]4- [Gd][Ed] | d3 d3 | d6 | EF G B2 _c | %25
 [Ec]4- [Ec][CE] | c2 z2 z2 | c6 | c4 z2 | [Fd]4- [Fd][Fd] | =d3 d3 | %31
[M:7/8] [Ge]2 [Ae] [Be]3 [Fd] |[M:3/4] z2 z [Fd] z2 |[M:5/8] A-A- A3 |] %34
V:2
 z3 z2 A,, | z F[A,,E,] [A,,E,]2 [A,,A,] | [A,,A,]2 [A,,A,] [A,,A,]2 [A,,A,] | %3
 [A,,A,]2 [A,,E,] [A,,E,]2 [A,,E,] | [B,,E,]3- [B,,E,]2 [E,G,] | EFE, E,2 [E,E] | %6
 [E,E]2 [E,E] [E,E]2 [E,G,D] | [E,D]-[E,A,D][E,B,D] [E,G,D]2 [E,G,=D] | %8
 [A,,A,]3- [A,,A,]2 [A,,A,] | [A,,A,]2 [A,,E,] [A,,E,]2 [A,,A,] | %10
 [A,,A,]2 [A,,A,] [A,,A,]2 [F,A,] | [F,C]2 [F,C] [F,CF]2 [F,B,C] | [F,A,C]3- [F,A,C]2 [F,A,C] | %13
 [B,,F,]2 [B,,F,] [B,,F,]2 B,, | B,,2 B,, B,,2 B,, | [E,G,]2 [E,G,B,] [E,A,C]2 [E,A,C] | %16
[M:5/8] [E,B,D]-[E,B,D]- [E,B,D]3 |[M:1/8] [E,G,] |[M:3/4] [A,,A,]2 [A,,A,] [A,,A,]2 [A,,A,] | %19
 [A,,A,]2 [A,,A,] [A,,A,]2 [A,,A,] | [A,,A,]2 [A,,A,] [A,,A,]2 [A,,A,] | [E,B,]4- [E,B,][E,G,] | %22
 [E,E]2 [E,E] [E,E]2 [E,E] | [E,E]2 [E,E] [E,E]2 [E,G,D] | %24
 [E,D]-[E,A,D] [E,B,D] [E,G,D]2 [E,G,=D] | [A,,A,]4- [A,,A,][A,,A,] | %26
 [A,,A,]2 [A,,A,] [A,,A,]2 [A,,A,] | [A,,A,]2 [A,,A,] [A,,A,]2[K:treble] [A,EA] | %28
 [A,E_G]2 [A,E] [A,CG]2 [A,C] | [D,A,]4- [D,A,][D,A,] | [B,,A,]2 [B,,A,] [B,,B,]2 [B,,B,] | %31
[M:7/8] [E,B,]2 [E,C] [E,D]3 [E,G,] |[M:3/4] [A,,A,]2 .A,2 E[E,DE] | %33
[M:5/8] [A,CE]-[A,CE]- [A,CE]3 |] %34
V:3
 x6 | .A,,3 z3 | x6 | x6 | x6 | .[E,B,]3 z3 | x6 | .G,3 z3 | x6 | x6 | x6 | x6 | x6 | x6 | x6 | %15
 x6 |[M:5/8] x5 |[M:1/8] x |[M:3/4] x6 | x6 | x6 | x6 | x6 | x6 | .G,2 z2 z2 | x6 | x6 | %27
 x5[K:treble] x | x6 | x6 | x6 |[M:7/8] x7 |[M:3/4] z2 z .E,3 |[M:5/8] x5 |] %34
V:4
 x6 | x6 | x6 | .C3 z3 | x6 | x6 | x6 | x6 | x6 | .C3 z3 | x6 | x6 | x6 | x6 | x6 | x6 | %16
[M:5/8] x5 |[M:1/8] x |[M:3/4] .E2 z .A3 | F2 =E _E2 [Ec] | EF G A2 E | x6 | G2 A B2 A | %23
 G2 F G2 E | x6 | x6 | EF [Gc] [Ac]2 [Gc] | F2 =E _E2 c | z2 _G B2 [GA] | x6 | F2 F A2 A | %31
[M:7/8] x7 |[M:3/4] [Ec]2 [EAc]G- [Gc]B |[M:5/8] x5 |] %34

